ui/img/icon-4k.svg

<?xml version="1.0" encoding="UTF-8" standalone="no"?>
<!-- Created with Inkscape (http://www.inkscape.org/) -->

<svg
   xmlns:dc="http://purl.org/dc/elements/1.1/"
   xmlns:cc="http://creativecommons.org/ns#"
   xmlns:rdf="http://www.w3.org/1999/02/22-rdf-syntax-ns#"
   xmlns:svg="http://www.w3.org/2000/svg"
   xmlns="http://www.w3.org/2000/svg"
   xmlns:xlink="http://www.w3.org/1999/xlink"
   xmlns:sodipodi="http://sodipodi.sourceforge.net/DTD/sodipodi-0.dtd"
   xmlns:inkscape="http://www.inkscape.org/namespaces/inkscape"
   width="256"
   height="256"
   viewBox="0 0 67.733332 67.733336"
   version="1.1"
   id="svg8"
   inkscape:version="0.92.2 5c3e80d, 2017-08-06"
   sodipodi:docname="icon-4k.svg">
  <defs
     id="defs2">
    <linearGradient
       id="black-gradient">
      <stop
         offset="0"
         style="stop-color:#333333;stop-opacity:1"
         id="black1" />
      <stop
         offset="1"
         style="stop-color:#212121;stop-opacity:1"
         id="black2" />
    </linearGradient>
    <linearGradient
       id="blue-gradient">
      <stop
         offset="0"
         style="stop-color:#33ccff;stop-opacity:1"
         id="blue1" />
      <stop
         offset="1"
         style="stop-color:#06c1ff;stop-opacity:1"
         id="blue2" />
    </linearGradient>
    <linearGradient
       gradientTransform="matrix(1.1276503,0,0,1.1276503,-4033.1004,1421.0367)"
       gradientUnits="userSpaceOnUse"
       xlink:href="#black-gradient"
       y2="-1028.5905"
       x2="3494.25"
       y1="-1044.3878"
       x1="3494.25"
       id="black" />
    <linearGradient
       gradientTransform="matrix(1.1276503,0,0,1.1276503,-3971.5228,1427.6343)"
       gradientUnits="userSpaceOnUse"
       xlink:href="#blue-gradient"
       y2="-1026.9196"
       x2="3550.75"
       y1="-1045.5128"
       x1="3550.75"
       id="blue" />
  </defs>
  <sodipodi:namedview
     id="base"
     pagecolor="#525252"
     bordercolor="#ffffff"
     borderopacity="1"
     inkscape:pageopacity="0"
     inkscape:pageshadow="2"
     inkscape:zoom="4.5429688"
     inkscape:cx="128"
     inkscape:cy="128"
     inkscape:document-units="px"
     inkscape:current-layer="layer1"
     showgrid="true"
     units="px"
     guidecolor="#ff004a"
     guideopacity="0.49803922"
     showguides="true"
     inkscape:guide-bbox="true"
     inkscape:snap-grids="true"
     inkscape:object-nodes="false"
     inkscape:snap-others="false"
     inkscape:snap-nodes="true"
     inkscape:snap-global="true">
    <inkscape:grid
       type="xygrid"
       id="grid992"
       empspacing="10"
       spacingx="0.26458334"
       spacingy="0.26458334"
       empcolor="#1d00ff"
       empopacity="0.25098039"
       color="#ff0031"
       opacity="0.1254902" />
    <sodipodi:guide
       position="8.2020833,13.493751"
       orientation="1,0"
       id="guide1183"
       inkscape:locked="false" />
    <sodipodi:guide
       position="37.041667,50.270836"
       orientation="0,1"
       id="guide2597"
       inkscape:locked="false" />
    <sodipodi:guide
       position="29.104167,18.520834"
       orientation="0,1"
       id="guide2599"
       inkscape:locked="false" />
  </sodipodi:namedview>
  <metadata
     id="metadata5">
    <rdf:RDF>
      <cc:Work
         rdf:about="">
        <dc:format>image/svg+xml</dc:format>
        <dc:type
           rdf:resource="http://purl.org/dc/dcmitype/StillImage" />
        <dc:title></dc:title>
      </cc:Work>
    </rdf:RDF>
  </metadata>
  <g
     inkscape:label="Layer 1"
     inkscape:groupmode="layer"
     id="layer1"
     transform="translate(0,-229.26665)">
    <g
       aria-label="4K"
       transform="scale(0.99143234,1.0086417)"
       style="font-style:normal;font-variant:normal;font-weight:900;font-stretch:condensed;font-size:60.42161179px;line-height:125%;font-family:'Helvetica Neue';-inkscape-font-specification:'Helvetica Neue Heavy Condensed';text-align:end;letter-spacing:0px;word-spacing:0px;text-anchor:end;fill:none;fill-opacity:1;stroke:#ffffff;stroke-width:2.64583325;stroke-linecap:round;stroke-linejoin:round;stroke-miterlimit:4;stroke-dasharray:none;stroke-opacity:1"
       id="text883">
      <path
         d="m 1.3343463,266.01472 v 8.45903 H 16.560592 v 7.97565 h 10.513361 v -7.97565 h 3.74614 v -8.0965 h -3.74614 V 240.5168 H 14.868787 Z m 15.5887757,0.36253 H 9.7933719 l 7.0089071,-14.2595 h 0.120843 z"
         style="font-style:normal;font-variant:normal;font-weight:900;font-stretch:condensed;font-family:'Helvetica Neue';-inkscape-font-specification:'Helvetica Neue Heavy Condensed';fill:none;stroke:#ffffff;stroke-width:2.64583325;stroke-linecap:round;stroke-linejoin:round;stroke-miterlimit:4;stroke-dasharray:none;stroke-opacity:1"
         id="path885" />
      <path
         d="m 33.994115,239.30837 v 43.14103 h 11.23842 v -11.41968 l 2.356443,-3.6253 6.585955,15.04498 H 66.984315 L 54.779149,258.15991 65.65504,239.30837 H 53.69156 l -8.338182,16.55552 h -0.120843 v -16.55552 z"
         style="font-style:normal;font-variant:normal;font-weight:900;font-stretch:condensed;font-family:'Helvetica Neue';-inkscape-font-specification:'Helvetica Neue Heavy Condensed';fill:none;stroke:#ffffff;stroke-width:2.64583325;stroke-linecap:round;stroke-linejoin:round;stroke-miterlimit:4;stroke-dasharray:none;stroke-opacity:1"
         id="path887" />
    </g>
  </g>
</svg>

<?xml version="1.0" encoding="UTF-8"?>
<svg width="256" height="256" version="1.1" viewBox="0 0 67.733 67.733" xmlns="http://www.w3.org/2000/svg">
<g transform="translate(0 -229.27)">
<g transform="scale(.99143 1.0086)" fill="none" stroke="#fff" stroke-linecap="round" stroke-linejoin="round" stroke-width="2.6458" aria-label="4K">
<path d="m1.3343 266.01v8.459h15.226v7.9756h10.513v-7.9756h3.7461v-8.0965h-3.7461v-25.86h-12.205zm15.589 0.36253h-7.1298l7.0089-14.26h0.12084z"/>
<path d="m33.994 239.31v43.141h11.238v-11.42l2.3564-3.6253 6.586 15.045h12.809l-12.205-24.289 10.876-18.852h-11.963l-8.3382 16.556h-0.12084v-16.556z"/>
</g>
</g>
</svg>
